symbols/web/swipe/materialsymbolsrounded/swipe_wght200grad200_48px.svg

<svg xmlns="http://www.w3.org/2000/svg" height="48" width="48"><path d="M6.35 12.45q-.7 0-1.175-.5-.475-.5-.475-1.15V4.25q0-.4.275-.65t.675-.25q.4 0 .675.25t.275.65V8.8q3.65-3.05 8.125-4.725Q19.2 2.4 24 2.4q4.8 0 9.275 1.65Q37.75 5.7 41.45 8.8V4.3q0-.45.275-.7.275-.25.675-.25t.675.25q.275.25.275.7v6.5q0 .65-.475 1.15-.475.5-1.175.5h-6.4q-.4 0-.675-.275t-.275-.675q0-.4.275-.675t.675-.275h5.25q-3.6-3-7.75-4.675Q28.65 4.2 23.9 4.2q-4.55 0-8.675 1.725Q11.1 7.65 7.5 10.55h5.25q.4 0 .65.25t.25.65q0 .4-.25.7-.25.3-.65.3Zm14.75 32.2q-.55 0-1.05-.2t-.9-.6l-7.9-7.8q-.55-.55-.625-1.475-.075-.925.475-1.625.6-.7 1.425-1 .825-.3 1.675-.1l5.15 1.05V14.75q0-1.5 1.075-2.575Q21.5 11.1 23 11.1q1.5 0 2.575 1.075 1.075 1.075 1.075 2.575v9.75h1.45q.25 0 .575.075.325.075.525.175l6.8 3.3q1.35.7 1.95 2.075.6 1.375.35 2.875l-1.65 9.5q-.1.95-.875 1.55-.775.6-1.775.6Zm-.15-2.2H34.4L36.1 33q.1-.8-.15-1.7-.25-.9-1.1-1.3l-7.2-3.6h-3.2V14.75q0-.65-.4-1.05T23 13.3q-.7 0-1.075.4t-.375 1.05v20.8l-8.25-1.7-.5.55Zm13.45 0H20.95 34.4Z"/></svg>

<svg xmlns="http://www.w3.org/2000/svg" height="48" width="48"><path d="M6.35 12.45Q5.65 12.45 5.175 11.95Q4.7 11.45 4.7 10.8V4.25Q4.7 3.85 4.975 3.6Q5.25 3.35 5.65 3.35Q6.05 3.35 6.325 3.6Q6.6 3.85 6.6 4.25V8.8Q10.25 5.75 14.725 4.075Q19.2 2.4 24 2.4Q28.8 2.4 33.275 4.05Q37.75 5.7 41.45 8.8V4.3Q41.45 3.85 41.725 3.6Q42 3.35 42.4 3.35Q42.8 3.35 43.075 3.6Q43.35 3.85 43.35 4.3V10.8Q43.35 11.45 42.875 11.95Q42.4 12.45 41.7 12.45H35.3Q34.9 12.45 34.625 12.175Q34.35 11.9 34.35 11.5Q34.35 11.1 34.625 10.825Q34.9 10.55 35.3 10.55H40.55Q36.95 7.55 32.8 5.875Q28.65 4.2 23.9 4.2Q19.35 4.2 15.225 5.925Q11.1 7.65 7.5 10.55H12.75Q13.15 10.55 13.4 10.8Q13.65 11.05 13.65 11.45Q13.65 11.85 13.4 12.15Q13.15 12.45 12.75 12.45ZM21.1 44.65Q20.55 44.65 20.05 44.45Q19.55 44.25 19.15 43.85L11.25 36.05Q10.7 35.5 10.625 34.575Q10.55 33.65 11.1 32.95Q11.7 32.25 12.525 31.95Q13.35 31.65 14.2 31.85L19.35 32.9V14.75Q19.35 13.25 20.425 12.175Q21.5 11.1 23 11.1Q24.5 11.1 25.575 12.175Q26.65 13.25 26.65 14.75V24.5H28.1Q28.35 24.5 28.675 24.575Q29 24.65 29.2 24.75L36 28.05Q37.35 28.75 37.95 30.125Q38.55 31.5 38.3 33L36.65 42.5Q36.55 43.45 35.775 44.05Q35 44.65 34 44.65ZM20.95 42.45H34.4L36.1 33Q36.2 32.2 35.95 31.3Q35.7 30.4 34.85 30L27.65 26.4H24.45V14.75Q24.45 14.1 24.05 13.7Q23.65 13.3 23 13.3Q22.3 13.3 21.925 13.7Q21.55 14.1 21.55 14.75V35.55L13.3 33.85L12.8 34.4ZM34.4 42.45H20.95H21.55Q21.55 42.45 21.95 42.45Q22.35 42.45 23 42.45Q23.65 42.45 24.05 42.45Q24.45 42.45 24.45 42.45H27.7H34.4Q34.4 42.45 34.4 42.45Q34.4 42.45 34.4 42.45Z"/></svg>
